;FLAVOR:UltiGCode
;TIME:11578
;MATERIAL:15384
;MATERIAL2:0
;NOZZLE_DIAMETER:0.4
;MINX:33.2
;MINY:33.2
;MINZ:0.3
;MAXX:86.8
;MAXY:86.8
;MAXZ:35
;Generated with Cura_SteamEngine 4.4.1
M82 ;absolute extrusion mode

G92 E0
G92 E0
G10
;LAYER_COUNT:348
;LAYER:0
M107
G0 F3600 X35.623 Y35.349 Z0.3
;TYPE:SKIRT
G11
G1 F1800 X36.222 Y34.834 E0.09479
G1 X36.87 Y34.383 E0.18953
G1 X37.561 Y33.999 E0.2844
G1 X38.286 Y33.687 E0.37911
G1 X39.039 Y33.45 E0.47384
G1 X39.813 Y33.291 E0.56866
G1 X40.598 Y33.21 E0.66336
G1 X41 Y33.2 E0.71162
G1 X79 Y33.2 E5.27162
G1 X79.789 Y33.24 E5.36642
G1 X80.569 Y33.359 E5.4611
G1 X81.334 Y33.557 E5.55593
G1 X82.074 Y33.831 E5.65062
G1 X82.783 Y34.179 E5.74539
G1 X83.454 Y34.597 E5.84026
G1 X84.078 Y35.08 E5.93495
G1 X84.651 Y35.623 E6.02968
G1 X85.166 Y36.222 E6.12447
G1 X85.617 Y36.87 E6.21921
G1 X86.001 Y37.561 E6.31408
G1 X86.313 Y38.286 E6.40879
G1 X86.55 Y39.039 E6.50352
G1 X86.709 Y39.813 E6.59834
G1 X86.79 Y40.598 E6.69304
G1 X86.8 Y41 E6.7413
G1 X86.8 Y79 E11.3013
G1 X86.76 Y79.789 E11.3961
G1 X86.641 Y80.569 E11.49078
G1 X86.443 Y81.334 E11.58561
G1 X86.169 Y82.074 E11.6803
G1 X85.821 Y82.783 E11.77507
G1 X85.403 Y83.454 E11.86994
G1 X84.92 Y84.078 E11.96463
G1 X84.377 Y84.651 E12.05936
G1 X83.778 Y85.166 E12.15415
G1 X83.13 Y85.617 E12.24889
G1 X82.439 Y86.001 E12.34376
G1 X81.714 Y86.313 E12.43847
G1 X80.961 Y86.55 E12.5332
G1 X80.187 Y86.709 E12.62802
G1 X79.402 Y86.79 E12.72272
G1 X79 Y86.8 E12.77098
G1 X41 Y86.8 E17.33098
G1 X40.211 Y86.76 E17.42578
G1 X39.431 Y86.641 E17.52046
G1 X38.666 Y86.443 E17.61529
G1 X37.926 Y86.169 E17.70998
G1 X37.217 Y85.821 E17.80475
G1 X36.546 Y85.403 E17.89962
G1 X35.922 Y84.92 E17.99431
G1 X35.349 Y84.377 E18.08904
G1 X34.834 Y83.778 E18.18383
G1 X34.383 Y83.13 E18.27857
G1 X33.999 Y82.439 E18.37344
G1 X33.687 Y81.714 E18.46815
G1 X33.45 Y80.961 E18.56288
G1 X33.291 Y80.187 E18.6577
G1 X33.21 Y79.402 E18.7524
G1 X33.2 Y79 E18.80066
G1 X33.2 Y41 E23.36066
G1 X33.24 Y40.211 E23.45546
G1 X33.359 Y39.431 E23.55014
G1 X33.557 Y38.666 E23.64497
G1 X33.831 Y37.926 E23.73966
G1 X34.179 Y37.217 E23.83443
G1 X34.597 Y36.546 E23.9293
G1 X35.08 Y35.922 E24.02399
G1 X35.623 Y35.349 E24.11872
G0 F3600 X36.016 Y35.53
G1 F1800 X36.611 Y35.042 E24.21106
G1 X37.253 Y34.619 E24.30332
G1 X37.936 Y34.264 E24.39569
G1 X38.651 Y33.983 E24.48788
G1 X39.393 Y33.777 E24.58029
G1 X40.151 Y33.649 E24.67254
G1 X41 Y33.6 E24.77459
G1 X79 Y33.6 E29.33459
G1 X79.768 Y33.64 E29.42687
G1 X80.528 Y33.759 E29.51918
G1 X81.271 Y33.957 E29.61145
G1 X81.99 Y34.231 E29.70379
G1 X82.676 Y34.578 E29.79604
G1 X83.323 Y34.994 E29.88834
G1 X83.923 Y35.475 E29.98062
G1 X84.47 Y36.016 E30.07294
G1 X84.958 Y36.611 E30.16529
G1 X85.381 Y37.253 E30.25755
G1 X85.736 Y37.936 E30.34992
G1 X86.017 Y38.651 E30.4421
G1 X86.223 Y39.393 E30.53451
G1 X86.351 Y40.151 E30.62676
G1 X86.4 Y41 E30.72881
G1 X86.4 Y79 E35.28881
G1 X86.36 Y79.768 E35.38109
G1 X86.241 Y80.528 E35.47341
G1 X86.043 Y81.271 E35.56568
G1 X85.769 Y81.99 E35.65801
G1 X85.422 Y82.676 E35.75026
G1 X85.006 Y83.323 E35.84257
G1 X84.525 Y83.923 E35.93485
G1 X83.984 Y84.47 E36.02717
G1 X83.389 Y84.958 E36.11951
G1 X82.747 Y85.381 E36.21177
G1 X82.064 Y85.736 E36.30414
G1 X81.349 Y86.017 E36.39633
G1 X80.607 Y86.223 E36.48873
G1 X79.849 Y86.351 E36.58098
G1 X79 Y86.4 E36.68303
G1 X41 Y86.4 E41.24303
G1 X40.232 Y86.36 E41.33532
G1 X39.472 Y86.241 E41.42763
G1 X38.729 Y86.043 E41.5199
G1 X38.01 Y85.769 E41.61223
G1 X37.324 Y85.422 E41.70448
G1 X36.677 Y85.006 E41.79679
G1 X36.077 Y84.525 E41.88907
G1 X35.53 Y83.984 E41.98139
G1 X35.042 Y83.389 E42.07373
G1 X34.619 Y82.747 E42.16599
G1 X34.264 Y82.064 E42.25836
G1 X33.983 Y81.349 E42.35055
G1 X33.777 Y80.607 E42.44296
G1 X33.649 Y79.849 E42.53521
G1 X33.6 Y79 E42.63726
G1 X33.6 Y41 E47.19726
G1 X33.64 Y40.232 E47.28954
G1 X33.759 Y39.472 E47.38185
G1 X33.957 Y38.729 E47.47412
G1 X34.231 Y38.01 E47.56646
G1 X34.578 Y37.324 E47.65871
G1 X34.994 Y36.677 E47.75101
G1 X35.475 Y36.077 E47.84329
G1 X36.016 Y35.53 E47.93561
G0 F3600 X36.408 Y35.716
G1 F1800 X36.998 Y35.257 E48.02531
G1 X37.634 Y34.862 E48.11516
G1 X38.308 Y34.538 E48.2049
G1 X39.013 Y34.288 E48.29466
G1 X39.741 Y34.114 E48.38448
G1 X40.483 Y34.019 E48.47425
G1 X41 Y34 E48.53633
G1 X79 Y34 E53.09633
G1 X79.747 Y34.04 E53.1861
G1 X80.485 Y34.159 E53.2758
G1 X81.207 Y34.357 E53.36564
G1 X81.903 Y34.63 E53.45535
G1 X82.566 Y34.977 E53.54515
G1 X83.189 Y35.392 E53.63498
G1 X83.763 Y35.871 E53.72469
G1 X84.284 Y36.408 E53.81448
G1 X84.743 Y36.998 E53.90418
G1 X85.138 Y37.634 E53.99402
G1 X85.462 Y38.308 E54.08376
G1 X85.712 Y39.013 E54.17352
G1 X85.886 Y39.741 E54.26334
G1 X85.981 Y40.483 E54.35311
G1 X86 Y41 E54.41519
G1 X86 Y79 E58.97519
G1 X85.96 Y79.747 E59.06496
G1 X85.841 Y80.485 E59.15466
G1 X85.643 Y81.207 E59.2445
G1 X85.37 Y81.903 E59.33422
G1 X85.023 Y82.566 E59.42402
G1 X84.608 Y83.189 E59.51384
G1 X84.129 Y83.763 E59.60356
G1 X83.592 Y84.284 E59.69334
G1 X83.002 Y84.743 E59.78304
G1 X82.366 Y85.138 E59.87288
G1 X81.692 Y85.462 E59.96262
G1 X80.987 Y85.712 E60.05239
G1 X80.259 Y85.886 E60.14221
G1 X79.517 Y85.981 E60.23197
G1 X79 Y86 E60.29406
G1 X41 Y86 E64.85406
G1 X40.253 Y85.96 E64.94382
G1 X39.515 Y85.841 E65.03353
G1 X38.793 Y85.643 E65.12337
G1 X38.097 Y85.37 E65.21308
G1 X37.434 Y85.023 E65.30288
G1 X36.811 Y84.608 E65.39271
G1 X36.237 Y84.129 E65.48242
G1 X35.716 Y83.592 E65.57221
G1 X35.257 Y83.002 E65.66191
G1 X34.862 Y82.366 E65.75175
G1 X34.538 Y81.692 E65.84149
G1 X34.288 Y80.987 E65.93125
G1 X34.114 Y80.259 E66.02107
G1 X34.019 Y79.517 E66.11084
G1 X34 Y79 E66.17292
G1 X34 Y41 E70.73292
G1 X34.04 Y40.253 E70.82269
G1 X34.159 Y39.515 E70.91239
G1 X34.357 Y38.793 E71.00223
G1 X34.63 Y38.097 E71.09195
G1 X34.977 Y37.434 E71.18174
G1 X35.392 Y36.811 E71.27157
G1 X35.871 Y36.237 E71.36129
G1 X36.408 Y35.716 E71.45107
G0 F3600 X36.265 Y36.402
G1 F1800 X36.799 Y35.909 E71.53828
G1 X37.384 Y35.479 E71.62541
G1 X38.013 Y35.115 E71.71262
G1 X38.678 Y34.822 E71.79982
G1 X39.371 Y34.604 E71.887
G1 X40.083 Y34.464 E71.97407
G1 X41 Y34.4 E72.08438
G1 X79 Y34.4 E76.64438
G1 X79.725 Y34.44 E76.73151
G1 X80.442 Y34.559 E76.81873
G1 X81.141 Y34.757 E76.90591
G1 X81.814 Y35.03 E76.99306
G1 X82.453 Y35.375 E77.0802
G1 X83.05 Y35.789 E77.16738
G1 X83.598 Y36.265 E77.25449
G1 X84.091 Y36.799 E77.3417
G1 X84.521 Y37.384 E77.42882
G1 X84.885 Y38.013 E77.51603
G1 X85.178 Y38.678 E77.60323
G1 X85.396 Y39.371 E77.69041
G1 X85.536 Y40.083 E77.77749
G1 X85.6 Y41 E77.88779
G1 X85.6 Y79 E82.44779
G1 X85.56 Y79.725 E82.53493
G1 X85.441 Y80.442 E82.62214
G1 X85.243 Y81.141 E82.70932
G1 X84.97 Y81.814 E82.79648
G1 X84.625 Y82.453 E82.88362
G1 X84.211 Y83.05 E82.9708
G1 X83.735 Y83.598 E83.0579
G1 X83.201 Y84.091 E83.14512
G1 X82.616 Y84.521 E83.23224
G1 X81.987 Y84.885 E83.31945
G1 X81.322 Y85.178 E83.40665
G1 X80.629 Y85.396 E83.49383
G1 X79.917 Y85.536 E83.5809
G1 X79 Y85.6 E83.69121
G1 X41 Y85.6 E88.25121
G1 X40.275 Y85.56 E88.33834
G1 X39.558 Y85.441 E88.42556
G1 X38.859 Y85.243 E88.51274
G1 X38.186 Y84.97 E88.59989
G1 X37.547 Y84.625 E88.68703
G1 X36.95 Y84.211 E88.77421
G1 X36.402 Y83.735 E88.86132
G1 X35.909 Y83.201 E88.94853
G1 X35.479 Y82.616 E89.03566
G1 X35.115 Y81.987 E89.12286
G1 X34.822 Y81.322 E89.21007
G1 X34.604 Y80.629 E89.29724
G1 X34.464 Y79.917 E89.38432
G1 X34.4 Y79 E89.49463
G1 X34.4 Y41 E94.05463
G1 X34.44 Y40.275 E94.14176
G1 X34.559 Y39.558 E94.22898
G1 X34.757 Y38.859 E94.31616
G1 X35.03 Y38.186 E94.40331
G1 X35.375 Y37.547 E94.49045
G1 X35.789 Y36.95 E94.57763
G1 X36.265 Y36.402 E94.66473
G0 F3600 X36.659 Y36.573
G1 F1800 X37.189 Y36.109 E94.74926
G1 X37.768 Y35.709 E94.83371
G1 X38.389 Y35.377 E94.91821
G1 X39.043 Y35.117 E95.00267
G1 X39.723 Y34.933 E95.0872
G1 X40.419 Y34.827 E95.17169
G1 X41 Y34.8 E95.24148
G1 X79 Y34.8 E99.80148
G1 X79.703 Y34.84 E99.88598
G1 X80.397 Y34.959 E99.97047
G1 X81.072 Y35.157 E100.05489
G1 X81.721 Y35.429 E100.13933
G1 X82.335 Y35.774 E100.22384
G1 X82.906 Y36.185 E100.30827
G1 X83.427 Y36.659 E100.39279
G1 X83.891 Y37.189 E100.47732
G1 X84.291 Y37.768 E100.56177
G1 X84.623 Y38.389 E100.64627
G1 X84.883 Y39.043 E100.73072
G1 X85.067 Y39.723 E100.81526
G1 X85.173 Y40.419 E100.89974
G1 X85.2 Y41 E100.96954
G1 X85.2 Y79 E105.52954
G1 X85.16 Y79.703 E105.61403
G1 X85.041 Y80.397 E105.69853
G1 X84.843 Y81.072 E105.78294
G1 X84.571 Y81.721 E105.86738
G1 X84.226 Y82.335 E105.9519
G1 X83.815 Y82.906 E106.03632
G1 X83.341 Y83.427 E106.12085
G1 X82.811 Y83.891 E106.20537
G1 X82.232 Y84.291 E106.28982
G1 X81.611 Y84.623 E106.37432
G1 X80.957 Y84.883 E106.45878
G1 X80.277 Y85.067 E106.54331
G1 X79.581 Y85.173 E106.6278
G1 X79 Y85.2 E106.69759
G1 X41 Y85.2 E111.25759
G1 X40.297 Y85.16 E111.34209
G1 X39.603 Y85.041 E111.42658
G1 X38.928 Y84.843 E111.511
G1 X38.279 Y84.571 E111.59544
G1 X37.665 Y84.226 E111.67995
G1 X37.094 Y83.815 E111.76438
G1 X36.573 Y83.341 E111.8489
G1 X36.109 Y82.811 E111.93343
G1 X35.709 Y82.232 E112.01788
G1 X35.377 Y81.611 E112.10238
G1 X35.117 Y80.957 E112.18683
G1 X34.933 Y80.277 E112.27137
G1 X34.827 Y79.581 E112.35585
G1 X34.8 Y79 E112.42565
G1 X34.8 Y41 E116.98565
G1 X34.84 Y40.297 E117.07014
G1 X34.959 Y39.603 E117.15464
G1 X35.157 Y38.928 E117.23905
G1 X35.429 Y38.279 E117.32349
G1 X35.774 Y37.665 E117.40801
G1 X36.185 Y37.094 E117.49243
G1 X36.659 Y36.573 E117.57696
G0 F3600 X37.053 Y36.751
G1 F1800 X37.578 Y36.317 E117.6587
G1 X38.15 Y35.948 E117.74038
G1 X38.762 Y35.649 E117.82211
G1 X39.404 Y35.424 E117.90375
G1 X40.069 Y35.275 E117.98553
G1 X41 Y35.2 E118.09761
G1 X79 Y35.2 E122.65761
G1 X79.68 Y35.24 E122.73935
G1 X80.35 Y35.359 E122.82101
G1 X81.002 Y35.556 E122.90274
G1 X81.626 Y35.828 E122.98443
G1 X82.214 Y36.172 E123.06618
G1 X82.758 Y36.582 E123.14792
G1 X83.249 Y37.053 E123.22957
G1 X83.683 Y37.578 E123.3113
G1 X84.052 Y38.15 E123.39299
G1 X84.351 Y38.762 E123.47472
G1 X84.576 Y39.404 E123.55636
G1 X84.725 Y40.069 E123.63814
G1 X84.8 Y41 E123.75022
G1 X84.8 Y79 E128.31022
G1 X84.76 Y79.68 E128.39196
G1 X84.641 Y80.35 E128.47362
G1 X84.444 Y81.002 E128.55535
G1 X84.172 Y81.626 E128.63704
G1 X83.828 Y82.214 E128.71878
G1 X83.418 Y82.758 E128.80053
G1 X82.947 Y83.249 E128.88218
G1 X82.422 Y83.683 E128.96391
G1 X81.85 Y84.052 E129.0456
G1 X81.238 Y84.351 E129.12733
G1 X80.596 Y84.576 E129.20897
G1 X79.931 Y84.725 E129.29075
G1 X79 Y84.8 E129.40283
G1 X41 Y84.8 E133.96283
G1 X40.32 Y84.76 E134.04457
G1 X39.65 Y84.641 E134.12623
G1 X38.998 Y84.444 E134.20796
G1 X38.374 Y84.172 E134.28965
G1 X37.786 Y83.828 E134.37139
G1 X37.242 Y83.418 E134.45314
G1 X36.751 Y82.947 E134.53478
G1 X36.317 Y82.422 E134.61652
G1 X35.948 Y81.85 E134.69821
G1 X35.649 Y81.238 E134.77994
G1 X35.424 Y80.596 E134.86158
G1 X35.275 Y79.931 E134.94336
G1 X35.2 Y79 E135.05544
G1 X35.2 Y41 E139.61544
G1 X35.24 Y40.32 E139.69718
G1 X35.359 Y39.65 E139.77884
G1 X35.556 Y38.998 E139.86057
G1 X35.828 Y38.374 E139.94226
G1 X36.172 Y37.786 E140.024
G1 X36.582 Y37.242 E140.10575
G1 X37.053 Y36.751 E140.18739
G0 F3600 X37.445 Y36.935
G1 F1800 X37.965 Y36.534 E140.26619
G1 X38.529 Y36.198 E140.34497
G1 X39.131 Y35.934 E140.42385
G1 X39.76 Y35.744 E140.5027
G1 X40.407 Y35.633 E140.58148
G1 X41 Y35.6 E140.65275
G1 X79 Y35.6 E145.21275
G1 X79.656 Y35.64 E145.29161
G1 X80.302 Y35.759 E145.37044
G1 X80.929 Y35.956 E145.4493
G1 X81.527 Y36.228 E145.52814
G1 X82.088 Y36.57 E145.60698
G1 X82.603 Y36.978 E145.68583
G1 X83.065 Y37.445 E145.76465
G1 X83.466 Y37.965 E145.84345
G1 X83.802 Y38.529 E145.92223
G1 X84.066 Y39.131 E146.00112
G1 X84.256 Y39.76 E146.07996
G1 X84.367 Y40.407 E146.15874
G1 X84.4 Y41 E146.23001
G1 X84.4 Y79 E150.79001
G1 X84.36 Y79.656 E150.86887
G1 X84.241 Y80.302 E150.9477
G1 X84.044 Y80.929 E151.02656
G1 X83.772 Y81.527 E151.1054
G1 X83.43 Y82.088 E151.18424
G1 X83.022 Y82.603 E151.26309
G1 X82.555 Y83.065 E151.34192
G1 X82.035 Y83.466 E151.42071
G1 X81.471 Y83.802 E151.49949
G1 X80.869 Y84.066 E151.57838
G1 X80.24 Y84.256 E151.65722
G1 X79.593 Y84.367 E151.736
G1 X79 Y84.4 E151.80727
G1 X41 Y84.4 E156.36727
G1 X40.344 Y84.36 E156.44613
G1 X39.698 Y84.241 E156.52496
G1 X39.071 Y84.044 E156.60383
G1 X38.473 Y83.772 E156.68266
G1 X37.912 Y83.43 E156.7615
G1 X37.397 Y83.022 E156.84035
G1 X36.935 Y82.555 E156.91918
G1 X36.534 Y82.035 E156.99798
G1 X36.198 Y81.471 E157.07676
G1 X35.934 Y80.869 E157.15564
G1 X35.744 Y80.24 E157.23448
G1 X35.633 Y79.593 E157.31326
G1 X35.6 Y79 E157.38453
G1 X35.6 Y41 E161.94453
G1 X35.64 Y40.344 E162.0234
G1 X35.759 Y39.698 E162.10222
G1 X35.956 Y39.071 E162.18109
G1 X36.228 Y38.473 E162.25992
G1 X36.57 Y37.912 E162.33876
G1 X36.978 Y37.397 E162.41761
G1 X37.445 Y36.935 E162.49644
G0 F3600 X37.373 Y37.559
G1 F1800 X37.836 Y37.129 E162.57226
G1 X38.35 Y36.76 E162.64819
G1 X38.906 Y36.46 E162.724
G1 X39.495 Y36.232 E162.79979
G1 X40.109 Y36.08 E162.8757
G1 X41 Y36 E162.98305
G1 X79 Y36 E167.54305
G1 X79.631 Y36.04 E167.61892
G1 X80.252 Y36.159 E167.6948
G1 X80.852 Y36.356 E167.77058
G1 X81.424 Y36.627 E167.84653
G1 X81.956 Y36.967 E167.9223
G1 X82.441 Y37.373 E167.9982
G1 X82.871 Y37.836 E168.07402
G1 X83.24 Y38.35 E168.14995
G1 X83.54 Y38.906 E168.22576
G1 X83.768 Y39.495 E168.30155
G1 X83.92 Y40.109 E168.37746
G1 X84 Y41 E168.48481
G1 X84 Y79 E173.04481
G1 X83.96 Y79.631 E173.12068
G1 X83.841 Y80.252 E173.19656
G1 X83.644 Y80.852 E173.27234
G1 X83.373 Y81.424 E173.34829
G1 X83.033 Y81.956 E173.42406
G1 X82.627 Y82.441 E173.49996
G1 X82.164 Y82.871 E173.57578
G1 X81.65 Y83.24 E173.65171
G1 X81.094 Y83.54 E173.72752
G1 X80.505 Y83.768 E173.80331
G1 X79.891 Y83.92 E173.87922
G1 X79 Y84 E173.98657
G1 X41 Y84 E178.54657
G1 X40.369 Y83.96 E178.62244
G1 X39.748 Y83.841 E178.69831
G1 X39.148 Y83.644 E178.7741
G1 X38.576 Y83.373 E178.85005
G1 X38.044 Y83.033 E178.92581
G1 X37.559 Y82.627 E179.00171
G1 X37.129 Y82.164 E179.07754
G1 X36.76 Y81.65 E179.15347
G1 X36.46 Y81.094 E179.22928
G1 X36.232 Y80.505 E179.30507
G1 X36.08 Y79.891 E179.38098
G1 X36 Y79 E179.48833
G1 X36 Y41 E184.04833
G1 X36.04 Y40.369 E184.1242
G1 X36.159 Y39.748 E184.20007
G1 X36.356 Y39.148 E184.27586
G1 X36.627 Y38.576 E184.35181
G1 X36.967 Y38.044 E184.42757
G1 X37.373 Y37.559 E184.50347
G0 F3600 X37.767 Y37.728
G1 F1800 X38.225 Y37.331 E184.57621
G1 X38.732 Y36.998 E184.649
G1 X39.278 Y36.734 E184.72177
G1 X39.854 Y36.545 E184.79452
G1 X40.45 Y36.433 E184.86729
G1 X41 Y36.4 E184.93341
G1 X79 Y36.4 E189.49341
G1 X79.605 Y36.44 E189.56617
G1 X80.199 Y36.559 E189.63887
G1 X80.773 Y36.755 E189.71165
G1 X81.316 Y37.026 E189.78447
G1 X81.819 Y37.365 E189.85726
G1 X82.272 Y37.767 E189.92994
G1 X82.669 Y38.225 E190.00267
G1 X83.002 Y38.732 E190.07546
G1 X83.266 Y39.278 E190.14824
G1 X83.455 Y39.854 E190.22099
G1 X83.567 Y40.45 E190.29376
G1 X83.6 Y41 E190.35988
G1 X83.6 Y79 E194.91988
G1 X83.56 Y79.605 E194.99264
G1 X83.441 Y80.199 E195.06533
G1 X83.245 Y80.773 E195.13812
G1 X82.974 Y81.316 E195.21094
G1 X82.635 Y81.819 E195.28373
G1 X82.233 Y82.272 E195.35641
G1 X81.775 Y82.669 E195.42914
G1 X81.268 Y83.002 E195.50193
G1 X80.722 Y83.266 E195.57471
G1 X80.146 Y83.455 E195.64745
G1 X79.55 Y83.567 E195.72023
G1 X79 Y83.6 E195.78635
G1 X41 Y83.6 E200.34635
G1 X40.395 Y83.56 E200.4191
G1 X39.801 Y83.441 E200.4918
G1 X39.227 Y83.245 E200.56458
G1 X38.684 Y82.974 E200.63741
G1 X38.181 Y82.635 E200.7102
G1 X37.728 Y82.233 E200.78288
G1 X37.331 Y81.775 E200.85561
G1 X36.998 Y81.268 E200.9284
G1 X36.734 Y80.722 E201.00118
G1 X36.545 Y80.146 E201.07392
G1 X36.433 Y79.55 E201.14669
G1 X36.4 Y79 E201.21281
G1 X36.4 Y41 E205.77281
G1 X36.44 Y40.395 E205.84557
G1 X36.559 Y39.801 E205.91827
G1 X36.755 Y39.227 E205.99105
G1 X37.026 Y38.684 E206.06388
G1 X37.365 Y38.181 E206.13667
G1 X37.767 Y37.728 E206.20934
G0 F3600 X38.16 Y37.906
G1 F1800 X38.613 Y37.544 E206.27893
G1 X39.111 Y37.249 E206.34839
G1 X39.645 Y37.024 E206.41792
G1 X40.205 Y36.876 E206.48743
G1 X41 Y36.8 E206.58326
G1 X79 Y36.8 E211.14326
G1 X79.578 Y36.84 E211.21279
G1 X80.145 Y36.959 E211.28231
G1 X80.69 Y37.155 E211.35181
G1 X81.203 Y37.424 E211.42132
G1 X81.674 Y37.761 E211.49082
G1 X82.094 Y38.16 E211.56034
